images/dydx.svg

<svg height="250" viewBox="0 0 250 250" width="250" xmlns="http://www.w3.org/2000/svg" xmlns:xlink="http://www.w3.org/1999/xlink"><linearGradient id="a" gradientUnits="userSpaceOnUse" x1="201.5027" x2="140.71036" y1="-33.46994" y2="219.26226"><stop offset="0" stop-color="#2c2c3d"/><stop offset="1" stop-color="#1a1a27"/></linearGradient><linearGradient id="b" gradientUnits="userSpaceOnUse" x1="87.28154204588" x2="126.90585811036" y1="67.1960275" y2="115.87498555836"><stop offset="0" stop-color="#fff"/><stop offset="1" stop-color="#fff" stop-opacity=".55"/></linearGradient><linearGradient id="c" gradientUnits="userSpaceOnUse" x1="167.15707844612" x2="118.561866276" y1="183.72538044" y2="117.05777088824"><stop offset="0" stop-color="#6966ff"/><stop offset="1" stop-color="#6966ff" stop-opacity=".36"/></linearGradient><path d="m51.914062 1.367188h146.171876c27.917968 0 50.546874 22.628906 50.546874 50.546874v146.171876c0 27.917968-22.628906 50.546874-50.546874 50.546874h-146.171876c-27.917968 0-50.546874-22.628906-50.546874-50.546874v-146.171876c0-27.917968 22.628906-50.546874 50.546874-50.546874zm0 0" fill="url(#a)"/><path d="m157.535156 58.742188-96.058594 135.234374h29.492188l96.558594-135.234374zm0 0" fill="#fff"/><path d="m94.039062 58.742188 28.265626 39.851562-14.746094 21.734375-43.625-61.585937zm0 0" fill="url(#b)"/><path d="m160.398438 193.988281-31.335938-44.074219 14.746094-21.132812 46.082031 65.207031zm0 0" fill="url(#c)"/><path d="m38.001094 1.000781h106.997812c20.435953 0 37.000313 16.56436 37.000313 37.000313v106.997812c0 20.435953-16.56436 37.000313-37.000313 37.000313h-106.997812c-20.435953 0-37.000313-16.56436-37.000313-37.000313v-106.997812c0-20.435953 16.56436-37.000313 37.000313-37.000313zm0 0" fill="none" stroke="#2d2d3d" stroke-width="2" transform="scale(1.36612)"/></svg>

<svg xmlns="http://www.w3.org/2000/svg" xmlns:xlink="http://www.w3.org/1999/xlink" width="250px" height="250px" viewBox="0 0 250 250" version="1.1">
<defs>
<linearGradient id="linear0" gradientUnits="userSpaceOnUse" x1="147.5" y1="-24.5" x2="103" y2="160.5" gradientTransform="matrix(1.36612,0,0,1.36612,0,0)">
<stop offset="0" style="stop-color:rgb(17.254902%,17.254902%,23.921569%);stop-opacity:1;"/>
<stop offset="1" style="stop-color:rgb(10.196079%,10.196079%,15.294118%);stop-opacity:1;"/>
</linearGradient>
<linearGradient id="linear1" gradientUnits="userSpaceOnUse" x1="63.890099" y1="49.1875" x2="92.895103" y2="84.820503" gradientTransform="matrix(1.36612,0,0,1.36612,0,0)">
<stop offset="0" style="stop-color:rgb(100%,100%,100%);stop-opacity:1;"/>
<stop offset="1" style="stop-color:rgb(100%,100%,100%);stop-opacity:0.55;"/>
</linearGradient>
<linearGradient id="linear2" gradientUnits="userSpaceOnUse" x1="122.359001" y1="134.487" x2="86.7873" y2="85.686302" gradientTransform="matrix(1.36612,0,0,1.36612,0,0)">
<stop offset="0" style="stop-color:rgb(41.176471%,40.000001%,100%);stop-opacity:1;"/>
<stop offset="1" style="stop-color:rgb(41.176471%,40.000001%,100%);stop-opacity:0.36;"/>
</linearGradient>
</defs>
<g id="surface1">
<path style=" stroke:none;fill-rule:nonzero;fill:url(#linear0);" d="M 51.914062 1.367188 L 198.085938 1.367188 C 226.003906 1.367188 248.632812 23.996094 248.632812 51.914062 L 248.632812 198.085938 C 248.632812 226.003906 226.003906 248.632812 198.085938 248.632812 L 51.914062 248.632812 C 23.996094 248.632812 1.367188 226.003906 1.367188 198.085938 L 1.367188 51.914062 C 1.367188 23.996094 23.996094 1.367188 51.914062 1.367188 Z M 51.914062 1.367188 "/>
<path style=" stroke:none;fill-rule:nonzero;fill:rgb(100%,100%,100%);fill-opacity:1;" d="M 157.535156 58.742188 L 61.476562 193.976562 L 90.96875 193.976562 L 187.527344 58.742188 Z M 157.535156 58.742188 "/>
<path style=" stroke:none;fill-rule:nonzero;fill:url(#linear1);" d="M 94.039062 58.742188 L 122.304688 98.59375 L 107.558594 120.328125 L 63.933594 58.742188 Z M 94.039062 58.742188 "/>
<path style=" stroke:none;fill-rule:nonzero;fill:url(#linear2);" d="M 160.398438 193.988281 L 129.0625 149.914062 L 143.808594 128.78125 L 189.890625 193.988281 Z M 160.398438 193.988281 "/>
<path style="fill:none;stroke-width:2;stroke-linecap:butt;stroke-linejoin:miter;stroke:rgb(17.647059%,17.647059%,23.921569%);stroke-opacity:1;stroke-miterlimit:4;" d="M 38.001094 1.000781 L 144.998906 1.000781 C 165.434859 1.000781 181.999219 17.565141 181.999219 38.001094 L 181.999219 144.998906 C 181.999219 165.434859 165.434859 181.999219 144.998906 181.999219 L 38.001094 181.999219 C 17.565141 181.999219 1.000781 165.434859 1.000781 144.998906 L 1.000781 38.001094 C 1.000781 17.565141 17.565141 1.000781 38.001094 1.000781 Z M 38.001094 1.000781 " transform="matrix(1.36612,0,0,1.36612,0,0)"/>
</g>
</svg>
